symbols/web/offline_pin/materialsymbolsrounded/offline_pin_wght700gradN25_20px.svg

<svg xmlns="http://www.w3.org/2000/svg" height="20" width="20"><path d="M8.208 10.875q.417.417.938.406.521-.01.916-.406l3.25-3.271q.271-.271.271-.666 0-.396-.271-.709-.312-.271-.708-.291-.396-.021-.708.27l-2.771 2.73-1-1q-.333-.271-.698-.282-.365-.01-.698.302-.333.313-.333.709 0 .395.333.708Zm-.646 3.354h4.917q.375 0 .667-.302.292-.302.292-.698 0-.375-.303-.677-.302-.302-.677-.302H7.542q-.375 0-.667.302-.292.302-.292.677 0 .396.302.698.303.302.677.302ZM10 18.833q-1.854 0-3.458-.687-1.604-.688-2.802-1.886t-1.886-2.802Q1.167 11.854 1.167 10q0-1.875.687-3.469.688-1.593 1.886-2.791t2.802-1.886Q8.146 1.167 10 1.167q1.875 0 3.469.687 1.593.688 2.791 1.886t1.886 2.791q.687 1.594.687 3.469 0 1.854-.687 3.458-.688 1.604-1.886 2.802t-2.791 1.886q-1.594.687-3.469.687ZM10 10Zm0 6.229q2.604 0 4.417-1.802 1.812-1.802 1.812-4.427 0-2.625-1.812-4.427Q12.604 3.771 10 3.771q-2.583 0-4.406 1.802Q3.771 7.375 3.771 10q0 2.604 1.812 4.417Q7.396 16.229 10 16.229Z"/></svg>

<svg xmlns="http://www.w3.org/2000/svg" height="20" width="20"><path d="M8.208 10.875Q8.625 11.292 9.146 11.281Q9.667 11.271 10.062 10.875L13.312 7.604Q13.583 7.333 13.583 6.938Q13.583 6.542 13.312 6.229Q13 5.958 12.604 5.938Q12.208 5.917 11.896 6.208L9.125 8.938L8.125 7.938Q7.792 7.667 7.427 7.656Q7.062 7.646 6.729 7.958Q6.396 8.271 6.396 8.667Q6.396 9.062 6.729 9.375ZM7.562 14.229H12.479Q12.854 14.229 13.146 13.927Q13.438 13.625 13.438 13.229Q13.438 12.854 13.135 12.552Q12.833 12.25 12.458 12.25H7.542Q7.167 12.25 6.875 12.552Q6.583 12.854 6.583 13.229Q6.583 13.625 6.885 13.927Q7.188 14.229 7.562 14.229ZM10 18.833Q8.146 18.833 6.542 18.146Q4.938 17.458 3.74 16.26Q2.542 15.062 1.854 13.458Q1.167 11.854 1.167 10Q1.167 8.125 1.854 6.531Q2.542 4.938 3.74 3.74Q4.938 2.542 6.542 1.854Q8.146 1.167 10 1.167Q11.875 1.167 13.469 1.854Q15.062 2.542 16.26 3.74Q17.458 4.938 18.146 6.531Q18.833 8.125 18.833 10Q18.833 11.854 18.146 13.458Q17.458 15.062 16.26 16.26Q15.062 17.458 13.469 18.146Q11.875 18.833 10 18.833ZM10 10Q10 10 10 10Q10 10 10 10Q10 10 10 10Q10 10 10 10Q10 10 10 10Q10 10 10 10Q10 10 10 10Q10 10 10 10ZM10 16.229Q12.604 16.229 14.417 14.427Q16.229 12.625 16.229 10Q16.229 7.375 14.417 5.573Q12.604 3.771 10 3.771Q7.417 3.771 5.594 5.573Q3.771 7.375 3.771 10Q3.771 12.604 5.583 14.417Q7.396 16.229 10 16.229Z"/></svg>
